public/images/mood/mood8-mouth-2.svg

<svg preserveAspectRatio="none" width="100%" height="100%" overflow="visible" style="display: block;" viewBox="0 0 26.7326 12.103" fill="none" xmlns="http://www.w3.org/2000/svg">
<path id="Vector 34" d="M2.02044 0.0200521C1.49001 -0.0669082 0.981301 0.134479 0.606228 0.517295C0.231155 0.900746 0.0204415 1.44529 0.0204415 2.02005C0.0204415 2.59482 0.231155 3.13936 0.606228 3.52281C0.981301 3.90563 1.49001 4.10701 2.02044 4.02005C2.02044 4.02005 2.02044 4.02005 2.02044 4.02005C2.94552 3.87078 3.86029 3.73777 4.76834 3.62111C7.94552 3.21691 11.1095 3.00794 14.2901 3.00145C16.0963 2.99811 17.914 3.00019 19.7178 3.01639C20.6194 3.02478 21.5317 3.03648 22.4286 3.0581C22.8796 3.06918 23.3184 3.08228 23.7632 3.10272C23.988 3.11318 24.2059 3.12529 24.4097 3.14144C24.5166 3.14991 24.616 3.15934 24.6999 3.17014C24.7359 3.17473 24.7859 3.18242 24.7993 3.18572C24.8085 3.18759 24.8117 3.18933 24.7914 3.1843C24.7783 3.16971 24.7293 3.21022 24.4482 2.99453C24.574 3.12049 24.5652 3.13841 24.5729 3.23595C24.5768 3.33568 24.5213 3.55901 24.3929 3.80184C24.1365 4.29595 23.6814 4.83165 23.1875 5.32553C22.1859 6.31988 20.9944 7.22343 19.7765 8.0523C17.3658 9.40774 13.3177 9.54716 10.3894 8.89391C9.04754 8.56724 7.97924 7.15965 6.01009 5.68738L6.38613 6.01445C5.80302 5.27385 5.21267 4.46933 4.61205 3.66725L4.71233 3.80183C4.71279 3.79853 4.70597 3.78388 4.69668 3.76364C4.4648 3.27538 4.15093 2.33159 3.9032 1.51477C3.7478 1.007 3.38035 0.598289 2.89864 0.372483C2.41675 0.146739 1.85708 0.123464 1.34575 0.306703C0.83441 0.489943 0.416908 0.863391 0.188084 1.34382C-0.0405684 1.82419 -0.0647948 2.37325 0.137681 2.86416C0.137681 2.86416 0.137681 2.86416 0.137681 2.86416C0.520354 3.76519 0.809818 4.55885 1.46826 5.67302C1.51225 5.74282 1.56008 5.81586 1.61842 5.89802L1.7187 6.0326C2.37962 6.77054 3.03218 7.52087 3.74585 8.29065L4.12189 8.61772C5.45402 9.34317 7.0554 11.3102 9.73258 11.8627C13.7646 12.3485 17.3758 12.2605 21.1921 10.0421C22.4543 9.0965 23.6845 8.09642 24.8167 6.89595C25.378 6.2856 25.9276 5.64551 26.359 4.76792C26.5657 4.32605 26.7611 3.79598 26.7292 3.12993C26.711 2.45813 26.3051 1.75397 25.8427 1.3844C25.5384 1.14452 25.3995 1.15448 25.3512 1.13126C25.2844 1.11331 25.2163 1.10016 25.1721 1.09267C25.0952 1.07944 24.9971 1.06743 24.9388 1.06162C24.8019 1.04759 24.6792 1.03934 24.5514 1.03192C24.3106 1.01844 24.0768 1.01078 23.8383 1.00452C23.368 0.992693 22.9198 0.98831 22.4603 0.985202C21.5477 0.979618 20.6302 0.981476 19.7242 0.983895C17.9125 0.98935 16.0934 0.998119 14.2862 1.00145C11.1043 1.00794 7.94047 0.815368 4.76548 0.416489C3.8581 0.301447 2.94424 0.169327 2.02044 0.0200521Z" fill="var(--stroke-0, #F4C280)"/>
</svg>

<svg xmlns="http://www.w3.org/2000/svg" fill="none" overflow="visible" preserveAspectRatio="none" style="display:block" viewBox="0 0 26.733 12.103"><path fill="var(--stroke-0, #f4c280)" d="M2.02.02C1.49-.067.981.134.606.517.231.901.02 1.445.02 2.02s.211 1.12.586 1.503.884.584 1.414.497q1.388-.224 2.748-.399a77 77 0 0 1 9.522-.62c1.806-.003 3.624 0 5.428.015.901.009 1.814.02 2.71.042.452.011.89.024 1.335.045q.34.014.647.038.162.013.29.03l.091.013c-.013-.014-.062.026-.343-.19.126.126.117.144.125.242.004.1-.052.323-.18.566-.256.494-.712 1.03-1.206 1.524-1.001.994-2.193 1.897-3.41 2.726-2.411 1.356-6.46 1.495-9.388.842C9.048 8.567 7.98 7.16 6.01 5.687l.376.327c-.583-.74-1.173-1.545-1.774-2.347l.1.135q0-.006-.015-.038c-.232-.489-.546-1.432-.794-2.25A1.87 1.87 0 0 0 2.9.373 2.04 2.04 0 0 0 1.346.307 2.04 2.04 0 0 0 .188 1.344a1.87 1.87 0 0 0-.05 1.52c.382.901.672 1.695 1.33 2.809q.065.103.15.225l.1.135C2.38 6.77 3.033 7.52 3.747 8.29l.376.327c1.332.725 2.933 2.692 5.61 3.245 4.033.486 7.644.398 11.46-1.82 1.262-.946 2.492-1.947 3.625-3.147.561-.61 1.11-1.25 1.542-2.128.207-.442.402-.972.37-1.638-.018-.672-.424-1.376-.886-1.746-.305-.24-.444-.23-.492-.253a2 2 0 0 0-.179-.038 4 4 0 0 0-.233-.031 9 9 0 0 0-.388-.03 21 21 0 0 0-.713-.027 74 74 0 0 0-1.378-.02c-.913-.004-1.831-.003-2.737 0-1.811.005-3.63.014-5.438.017A75 75 0 0 1 2.02.021"/></svg>
